icons-dark/actions/16/games-highscores.svg

<?xml version="1.0" encoding="UTF-8" standalone="no"?>
<!-- Created with Inkscape (http://www.inkscape.org/) -->

<svg
   xmlns:dc="http://purl.org/dc/elements/1.1/"
   xmlns:cc="http://creativecommons.org/ns#"
   xmlns:rdf="http://www.w3.org/1999/02/22-rdf-syntax-ns#"
   xmlns:svg="http://www.w3.org/2000/svg"
   xmlns="http://www.w3.org/2000/svg"
   xmlns:sodipodi="http://sodipodi.sourceforge.net/DTD/sodipodi-0.dtd"
   xmlns:inkscape="http://www.inkscape.org/namespaces/inkscape"
   width="16"
   height="16"
   id="svg3049"
   version="1.1"
   inkscape:version="0.91 r13725"
   sodipodi:docname="games-highscores.svg"
   inkscape:export-filename="/home/uri/.kde/share/icons/NITRUX-KDE/16x16/actions/view-right-new.png"
   inkscape:export-xdpi="30"
   inkscape:export-ydpi="30">
  <defs
     id="defs3051" />
  <sodipodi:namedview
     id="base"
     pagecolor="#ffffff"
     bordercolor="#666666"
     borderopacity="1.0"
     inkscape:pageopacity="0.0"
     inkscape:pageshadow="2"
     inkscape:zoom="45.254834"
     inkscape:cx="5.1688834"
     inkscape:cy="8.7947584"
     inkscape:document-units="px"
     inkscape:current-layer="layer1"
     showgrid="true"
     fit-margin-top="0"
     fit-margin-left="0"
     fit-margin-right="0"
     fit-margin-bottom="0"
     inkscape:window-width="1920"
     inkscape:window-height="1021"
     inkscape:window-x="-4"
     inkscape:window-y="0"
     inkscape:window-maximized="1"
     inkscape:showpageshadow="false"
     borderlayer="true"
     inkscape:snap-bbox="true"
     inkscape:snap-global="false"
     inkscape:object-nodes="true">
    <inkscape:grid
       type="xygrid"
       id="grid4085" />
    <sodipodi:guide
       position="2,15"
       orientation="12,0"
       id="guide4075" />
    <sodipodi:guide
       position="17,2"
       orientation="0,12"
       id="guide4077" />
    <sodipodi:guide
       position="14,13"
       orientation="-12,0"
       id="guide4079" />
    <sodipodi:guide
       position="12,14"
       orientation="0,-12"
       id="guide4081" />
  </sodipodi:namedview>
  <metadata
     id="metadata3054">
    <rdf:RDF>
      <cc:Work
         rdf:about="">
        <dc:format>image/svg+xml</dc:format>
        <dc:type
           rdf:resource="http://purl.org/dc/dcmitype/StillImage" />
        <dc:title />
      </cc:Work>
    </rdf:RDF>
  </metadata>
  <g
     inkscape:label="Capa 1"
     inkscape:groupmode="layer"
     id="layer1"
     transform="translate(-421.71429,-531.79074)">
    <path
       style="opacity:1;fill:#f2f2f2;fill-opacity:1;stroke:none;stroke-width:4;stroke-linecap:round;stroke-miterlimit:4;stroke-dasharray:none;stroke-opacity:1"
       d="m 5.0175781,2 c 0.011335,0.4577976 0.012182,0.7995517 0.015625,1.2304688 C 3.9693109,3.1670214 2.9215824,3.0922409 2.0175781,3 c 0,3.64947 1.67033,7.288801 5,7.900391 l 0,2.099609 -1,0 0,1 1,0 2,0 0.9999999,0 0,-1 -0.9999999,0 0,-2.099609 C 12.151965,10.324668 13.796075,7.0632233 13.980469,3.6386719 13.998419,3.4231506 13.996928,3.2927952 14,3 12.963105,3.0980237 11.895422,3.1752173 10.994141,3.2226562 11.001842,2.8151361 11.010558,2.4075306 11.017578,2 9.2082282,2.45279 7.2624581,2.58158 5.0175781,2 Z m 3,2 L 8.6367188,5.3164062 10.017578,5.5273438 9.0175781,6.5527344 9.2539062,8 8.0175781,7.3164062 6.78125,8 7.0175781,6.5527344 l -1,-1.0253906 1.3808594,-0.2109376 z M 12.964844,4.09375 C 12.776632,6.3665143 11.957626,8.8475713 9.7578125,9.6953125 10.538634,8.2533355 10.825859,5.9576496 10.9375,4.234375 11.591174,4.200215 12.271992,4.151513 12.964844,4.09375 Z M 3.0722656,4.09961 C 3.7597792,4.1576117 4.441938,4.2085484 5.0976562,4.2421875 5.209666,5.9646696 5.4976493,8.2553996 6.2773438,9.6953125 4.0794644,8.8483131 3.2614206,6.3707492 3.0722656,4.09961 Z"
       transform="translate(421.71429,531.79074)"
       id="rect4242"
       inkscape:connector-curvature="0"
       sodipodi:nodetypes="ccccccccccccccccccccccccccccccccccccc" />
  </g>
</svg>

<svg xmlns="http://www.w3.org/2000/svg" viewBox="0 0 16 16">
  <defs id="defs3051">
    <style type="text/css" id="current-color-scheme">
      .ColorScheme-Text {
        color:#f2f2f2;
      }
      </style>
  </defs>
 <path style="fill:currentColor;fill-opacity:1;stroke:none" 
     d="M 5.0175781 2 C 5.0289131 2.4577976 5.0297601 2.7995517 5.0332031 3.2304688 C 3.9693109 3.1670214 2.9215824 3.0922409 2.0175781 3 C 2.0175781 6.64947 3.6879081 10.288801 7.0175781 10.900391 L 7.0175781 13 L 6.0175781 13 L 6.0175781 14 L 7.0175781 14 L 9.0175781 14 L 10.017578 14 L 10.017578 13 L 9.0175781 13 L 9.0175781 10.900391 C 12.151965 10.324668 13.796075 7.0632233 13.980469 3.6386719 C 13.998419 3.4231506 13.996928 3.2927952 14 3 C 12.963105 3.0980237 11.895422 3.1752174 10.994141 3.2226562 C 11.001842 2.8151362 11.010558 2.4075306 11.017578 2 C 9.2082283 2.45279 7.2624581 2.58158 5.0175781 2 z M 8.0175781 4 L 8.6367188 5.3164062 L 10.017578 5.5273438 L 9.0175781 6.5527344 L 9.2539062 8 L 8.0175781 7.3164062 L 6.78125 8 L 7.0175781 6.5527344 L 6.0175781 5.5273438 L 7.3984375 5.3164062 L 8.0175781 4 z M 12.964844 4.09375 C 12.776632 6.3665143 11.957626 8.8475713 9.7578125 9.6953125 C 10.538634 8.2533355 10.825859 5.9576496 10.9375 4.234375 C 11.591174 4.200215 12.271992 4.151513 12.964844 4.09375 z M 3.0722656 4.0996094 C 3.7597792 4.1576111 4.4419381 4.2085484 5.0976562 4.2421875 C 5.2096661 5.9646696 5.4976493 8.2553996 6.2773438 9.6953125 C 4.0794644 8.8483131 3.2614206 6.3707486 3.0722656 4.0996094 z "
     class="ColorScheme-Text"
     />
</svg>
